svg/u1f685.svg

<svg viewBox="0 0 128 128" xmlns="http://www.w3.org/2000/svg">
  <g>
    <rect height="16.43" fill="#455A64" width="41.87" x="82.18" y="98.37"/>
    <circle cx="82.66" cy="110.64" r="13.34" fill="#455A64"/>
    <circle cx="82.66" cy="110.64" r="8.9" fill="#607D8B"/>
    <path d="M71.3,104.66v5.98h8.18c0,1.75,1.42,3.17,3.17,3.17s3.17-1.42,3.17-3.17h7.63v-5.98H71.3z" fill="#455A64"/>
    <path d="M20.16,87.29h-0.15c0,0-4.7,8.11-7.59,14.56c-1.83,4.08-3.44,9.06-4.38,12.18 c-0.44,1.47,0.51,3,1.86,3h47.56l7.88-9.57c0,0,55.77,0,58.7,0V87.29H20.16z" fill="#0277BD"/>
    <path d="M17.84,90.41l-5.42,11.44l8-3.42c2.99-1.28,6.2-1.78,9.38-1.47c5.91,0.57,16.99,1.41,31.05,1.41 c20.59,0,60.36,0,63.2,0v-6.64L17.84,90.41z" fill="#004F84"/>
    <path d="M113.62,4.49c-23.13,0.21-29.46,6.66-29.46,6.66L65.19,30.08c-22.18,3.48-43.2,14.62-49.7,19.97 C7.09,56.97,2.09,66.1,4.8,74.83c2.71,8.74,13.04,15.58,13.04,15.58s15.75,3.33,42.65,3.33c17.68,0,45.31,0,63.56,0V4.41 C120.63,4.42,118.54,4.45,113.62,4.49z" fill="#E0E0E0"/>
    <ellipse cx="29.52" cy="70.31" rx="6.03" ry="6.94" fill="#FFCA28"/>
    <path d="M32.14,76.29c-2.87,0-5.2-2.68-5.2-5.98c0-3.3,2.33-5.98,5.2-5.98c0.18,0,0.34,0.04,0.51,0.06 c-0.91-0.64-1.98-1.02-3.13-1.02c-3.33,0-6.03,3.11-6.03,6.94c0,3.83,2.7,6.94,6.03,6.94c1.15,0,2.22-0.38,3.13-1.02 C32.48,76.25,32.32,76.29,32.14,76.29z" fill="#E2A610"/>
    <path d="M96.43,51.82c-4.61,9.03,0.41,11.54,3.98,11.54c1.05,0,11.65,0,23.65,0V33.36 C111.87,35.73,99.95,44.94,96.43,51.82z" fill="#0277BD"/>
    <path d="M34.58,84.79C10.25,80.63,4.35,69.11,4.06,68.71C4,70.9,4.29,73.29,5.16,75.88 c2.94,8.66,12.68,14.53,12.68,14.53s15.75,3.33,42.65,3.33c17.68,0,45.31,0,63.56,0v-6.18C98.56,87.81,51.86,87.75,34.58,84.79z" fill="#BDBDBD"/>
    <path d="M63.74,36.75c3.81-0.28,10.24,0.52,10.25,6.1c-2.26,7.31-31.29,10.07-36.31,5.64 C34.89,41.35,59.19,36.75,63.74,36.75z" fill="#F5F5F5"/>
    <polygon points="73.86,103.14 61.79,117.04 53.34,117.04 65.57,102.96 " fill="#039BE5"/>
    <polygon points="68.69,27.97 109.47,27.48 109.47,17.96 78.41,17.96 " fill="#BAE2FD"/>
    <path d="M98.38,16.28l-19.41,0.07l-2.48,2.47l19.08-0.15c0.57,0.15,0.89,0.75,0.7,1.3l-1.31,5.79 c-0.24,0.68-0.88,1.14-1.61,1.14H68.38l-3.02,3.02h44.17c0.93,0,1.69-0.76,1.69-1.69V18.09c0-0.93-0.75-1.68-1.67-1.69L98.38,16.28 z M107.25,26.9h-9.3c-0.61,0-1.03-0.6-0.84-1.17l1.23-5.55c0.18-0.52,0.68-0.87,1.23-0.87l7.69,0.08c0.52,0.01,0.94,0.43,0.94,0.95 v5.62C108.19,26.48,107.77,26.9,107.25,26.9z" fill="#37474F"/>
    <line fill="none" stroke="#37474F" stroke-width="2" stroke-miterlimit="10" x1="79.62" x2="67.65" y1="17.06" y2="29"/>
    <path d="M12.97,86.49c1.13,1.04,2.18,1.91,3.02,2.56V49.66c-0.17,0.13-2.21,1.88-3.02,2.65V86.49z" fill="#82AEC0"/>
    <path d="M12.97,77.17v9.32c1.13,1.04,2.18,1.91,3.02,2.56V78.89C14.89,78.32,13.89,77.75,12.97,77.17z" fill="#546E7A"/>
  </g>
</svg>

<svg viewBox="0 0 128 128" xmlns="http://www.w3.org/2000/svg">
  <defs/>
  <path d="M82.18,98.37 L124.05,98.37 L124.05,114.8 L82.18,114.8 L82.18,98.37 Z" fill="#455A64"/>
  <path d="M96,110.64 A13.34 13.34 0 1 1 69.32,110.64 A13.34 13.34 0 1 1 96,110.64 Z" fill="#455A64"/>
  <path d="M91.56,110.64 A8.9 8.9 0 1 1 73.76,110.64 A8.9 8.9 0 1 1 91.56,110.64 Z" fill="#607D8B"/>
  <path d="M71.3,104.66 L71.3,110.64 L79.48,110.64 C79.48,112.39 80.9,113.81 82.65,113.81 C84.4,113.81 85.82,112.39 85.82,110.64 L93.45,110.64 L93.45,104.66 L71.3,104.66 Z" fill="#455A64"/>
  <path d="M20.16,87.29 L20.01,87.29 C20.01,87.29 15.31,95.4 12.42,101.85 C10.59,105.93 8.98,110.91 8.04,114.03 C7.6,115.5 8.55,117.03 9.9,117.03 L57.46,117.03 L65.34,107.46 C65.34,107.46 121.11,107.46 124.04,107.46 L124.04,87.29 L20.16,87.29 Z" fill="#0277BD"/>
  <path d="M17.84,90.41 L12.42,101.85 L20.42,98.43 C23.41,97.15 26.62,96.65 29.8,96.96 C35.71,97.53 46.79,98.37 60.85,98.37 C81.44,98.37 121.21,98.37 124.05,98.37 L124.05,91.73 L17.84,90.41 Z" fill="#004F84"/>
  <path d="M113.62,4.49 C90.49,4.7 84.16,11.15 84.16,11.15 L65.19,30.08 C43.01,33.56 21.99,44.7 15.49,50.05 C7.09,56.97 2.09,66.1 4.8,74.83 C7.51,83.57 17.84,90.41 17.84,90.41 C17.84,90.41 33.59,93.74 60.49,93.74 C78.17,93.74 105.8,93.74 124.05,93.74 L124.05,4.41 C120.63,4.42 118.54,4.45 113.62,4.49 Z" fill="#E0E0E0"/>
  <path d="M35.55,70.31 A6.03 6.94 0 1 1 23.49,70.31 A6.03 6.94 0 1 1 35.55,70.31 Z" fill="#FFCA28"/>
  <path d="M32.14,76.29 C29.27,76.29 26.94,73.61 26.94,70.31 C26.94,67.01 29.27,64.33 32.14,64.33 C32.32,64.33 32.48,64.37 32.65,64.39 C31.74,63.75 30.67,63.37 29.52,63.37 C26.19,63.37 23.49,66.48 23.49,70.31 C23.49,74.14 26.19,77.25 29.52,77.25 C30.67,77.25 31.74,76.87 32.65,76.23 C32.48,76.25 32.32,76.29 32.14,76.29 Z" fill="#E2A610"/>
  <path d="M96.43,51.82 C91.82,60.85 96.84,63.36 100.41,63.36 C101.46,63.36 112.06,63.36 124.06,63.36 L124.06,33.36 C111.87,35.73 99.95,44.94 96.43,51.82 Z" fill="#0277BD"/>
  <path d="M34.58,84.79 C10.25,80.63 4.35,69.11 4.06,68.71 C4,70.9 4.29,73.29 5.16,75.88 C8.1,84.54 17.84,90.41 17.84,90.41 C17.84,90.41 33.59,93.74 60.49,93.74 C78.17,93.74 105.8,93.74 124.05,93.74 L124.05,87.56 C98.56,87.81 51.86,87.75 34.58,84.79 Z" fill="#BDBDBD"/>
  <path d="M63.74,36.75 C67.55,36.47 73.98,37.27 73.99,42.85 C71.73,50.16 42.7,52.92 37.68,48.49 C34.89,41.35 59.19,36.75 63.74,36.75 Z" fill="#F5F5F5"/>
  <path d="M73.86,103.14 L61.79,117.04 L53.34,117.04 L65.57,102.96 Z" fill="#039BE5"/>
  <path d="M68.69,27.97 L109.47,27.48 L109.47,17.96 L78.41,17.96 Z" fill="#BAE2FD"/>
  <path d="M98.38,16.28 L78.97,16.35 L76.49,18.82 L95.57,18.67 C96.14,18.82 96.46,19.42 96.27,19.97 L94.96,25.76 C94.72,26.44 94.08,26.9 93.35,26.9 L68.38,26.9 L65.36,29.92 L109.53,29.92 C110.46,29.92 111.22,29.16 111.22,28.23 L111.22,18.09 C111.22,17.16 110.47,16.41 109.55,16.4 L98.38,16.28 Z M107.25,26.9 L97.95,26.9 C97.34,26.9 96.92,26.3 97.11,25.73 L98.34,20.18 C98.52,19.66 99.02,19.31 99.57,19.31 L107.26,19.39 C107.78,19.4 108.2,19.82 108.2,20.34 L108.2,25.96 C108.19,26.48 107.77,26.9 107.25,26.9 Z" fill="#37474F"/>
  <path d="M80.326,17.768 L68.356,29.708 L66.944,28.292 L78.914,16.352 L80.326,17.768 Z" fill="#37474F"/>
  <path d="M12.97,86.49 C14.1,87.53 15.15,88.4 15.99,89.05 L15.99,49.66 C15.82,49.79 13.78,51.54 12.97,52.31 L12.97,86.49 Z" fill="#82AEC0"/>
  <path d="M12.97,77.17 L12.97,86.49 C14.1,87.53 15.15,88.4 15.99,89.05 L15.99,78.89 C14.89,78.32 13.89,77.75 12.97,77.17 Z" fill="#546E7A"/>
</svg>
